X:1
T:Athole Brose or Niel Gow’s Favourite
M:4/4
K:G
L:1/8
A |: F>D D/D/D A,DDG | F>D D/D/D (G/A/B) AG | F>D D/D/D A,DD=F |1 (3 E=FG CE cGEG :|2 (3 E=FG CE cGEC ||
|: DdTd>c dedc | Add>e =fdec | d<d=fd ecfd | (c>dc).G ECGE :|]
